X: 1
T: Chateauguay Reel
C: trad.
Z: from R&O XV and XXIX
S: http://harbormist.com/tunes1/abc/chateauguay.txt 2018-11-8
M:C|
L:1/8
N: Q: 1/2=120
K:G
ga |\
 "G"b2 bg "B7"a2 af | "C"gage "G"d2 dg | "D7"ecAB cBce | "G"dBGA "D"B2 ga |
"G"b2 bg "B7"a2 af | "C"gage "G"d2 dg | "Am"ecAB "D7"cdef | "G"gfga g2 :|
|: D2 |\
"G"G2 GB d2 g2 | "C"efge "G"d2 dg | "D"ecAB "D7"cBce | "G"dBGA "D7"B2 "D/F#"BA |
"G"G2 GB d2 g2 | "C"efge "G"d2 dg | "Am"ecAB "D7"cdef | "G"gedB G2 :|
